X: 35
T:Do
R:reel
S:Trad, arr. Paddy O'Brien
M:C|
L:1/8
Q:1/2=112
E:9
K:Ador
|:EAAG ~A2Bd|eg~g2 egdc|BGGF GAGE|~D2B,D GABG|
EAAG ~A2Bd|eg~g2 egdg|eg~g2 dgba|gedB BAA2:|
|:~a2ea agea|agbg agef|~g2dg Bgdg|gfga gede|
~a2ea agea|agbg ageg|dg~g2 dgba|gedB BAA2:|
